X: 33828
T: Reaping The Rye
R: slip jig
M: 9/8
K: Eminor
BcB B2A GFE|~G3 ege f2e|BcB B2A GFE|~G3 efd e2d|
BcB B2A GFE|~G3 FGA Bcd|BcB B2A GFE|~G3 efd e2d||
BAB gag f2e|cBc gag f2e|BAB gag f2d|BcB B2A GFE|
BAB gag f2e|cBc gag fga|abg agf gfd|efg agf e2d||

